frontend/public/svg/health/stethoscope.svg

<svg width="130" height="153" viewBox="0 0 130 153" fill="none" xmlns="http://www.w3.org/2000/svg">
<g clip-path="url(#clip0)">
<path d="M128.899 134.928C128.318 136.236 127.745 137.549 127.153 138.852C126.466 140.528 125.337 141.986 123.885 143.069C122.433 144.152 120.714 144.819 118.912 144.999C114.543 145.611 110.091 144.948 106.09 143.09C101.412 140.891 99.447 137.421 99.783 132.273C99.9675 129.179 101.094 126.215 103.01 123.778C104.926 121.341 107.54 119.548 110.504 118.639C111.14 118.442 111.748 118.166 112.605 117.836C112.461 110.461 113.502 103.037 111.929 95.7205C111.39 93.5723 110.386 91.5692 108.988 89.8522C107.485 87.9298 105.247 87.6863 103.262 89.1302C101.546 90.372 100.058 91.9019 98.8642 93.6524C95.3088 98.9687 93.4435 104.954 92.5876 111.254C91.6517 118.146 90.9369 125.068 89.875 131.939C87.3769 148.107 70.4749 156.607 55.8576 149.098C48.7364 145.44 45.5248 139.167 45.3844 131.517C45.257 124.582 45.8262 117.625 46.2968 110.692C46.6375 105.657 47.3304 100.65 47.8338 95.6234C47.8817 94.8325 47.8861 94.0396 47.847 93.2487C41.7095 91.0421 35.6857 89.2379 29.9598 86.751C14.1952 79.8969 5.3372 67.4743 2.12442 50.8431C0.504256 42.7541 0.996957 34.384 3.55471 26.5409C7.14817 15.5899 14.7333 8.38268 25.6148 4.64615C26.5752 4.33896 27.5651 4.13244 28.5683 4.02987C30.1382 3.83691 31.4733 3.62687 32.5602 2.06807C33.8985 0.14828 35.8171 0.439721 37.2433 2.3746C37.8702 3.37457 38.2183 4.52381 38.2522 5.70356C38.286 6.88332 38.0042 8.0507 37.4356 9.0849C35.9109 11.4051 34.1153 11.3657 31.3068 8.95369C22.0524 10.183 10.4528 20.1252 8.35708 33.0688C7.0969 40.8569 7.05177 48.6438 9.73158 56.0256C13.6191 66.7353 20.3818 75.2316 31.2469 79.7315C35.4881 81.4885 39.9393 82.7349 44.1983 84.4512C51.3288 87.3253 58.2833 85.882 64.1884 82.1304C76.0479 74.5969 86.2736 65.0693 92.734 52.3186C97.9847 41.9544 98.0726 31.3663 92.178 21.0644C88.1304 13.9891 81.7423 10.16 74.0408 8.19366C72.7281 7.85827 71.7187 8.03213 70.8248 9.24373C69.8271 10.5892 68.3878 11.2731 66.676 10.5689C65.0699 9.90729 64.3559 8.53961 64.0874 6.89943C63.4311 2.88067 64.3308 1.13015 67.608 0.598519C68.5873 0.439029 69.7083 0.899761 70.7138 1.22136C71.8296 1.57776 72.8633 2.3699 73.9896 2.50905C84.8691 3.85716 93.1698 9.22667 98.6948 18.6162C105.833 30.7486 105.291 43.2336 99.6347 55.7243C96.1509 63.4173 90.7695 69.761 84.6367 75.439C80.0312 79.7052 75.2189 83.7535 70.3758 87.7499C67.058 90.5046 62.8905 92.0293 58.5781 92.0647C57.4783 92.1389 56.383 92.2688 55.2965 92.4546C55.1306 92.7998 55.0067 93.1634 54.9276 93.5388C54.4629 102.058 53.9017 110.575 53.6149 119.101C53.4659 123.247 53.6088 127.4 54.0427 131.527C54.9924 140.34 60.9566 144.781 69.7241 143.515C77.2378 142.43 80.979 139.1 82.3258 131.592C83.2735 126.301 83.7139 120.917 84.3237 115.57C85.3882 106.25 87.1649 97.1671 92.4222 89.1197C94.9642 85.2276 98.1501 82.2282 102.71 80.9372C106.692 79.8083 110.249 80.775 113.466 83.2494C118.605 87.2026 120.28 92.8083 120.83 98.9005C121.511 105.548 121.069 112.264 119.522 118.765C119.984 119.074 120.469 119.35 120.972 119.59C124.915 121.134 127.505 123.837 128.38 128.064C128.44 128.358 128.726 128.605 128.905 128.873L128.899 134.928ZM116.333 138.562C119.738 138.182 121.118 137.13 121.948 133.986C122.731 131.024 121.575 127.488 119.303 125.889C116.314 123.789 113.254 123.461 110.915 125.229C109.609 126.201 108.585 127.505 107.949 129.004C107.313 130.504 107.088 132.145 107.296 133.761C107.418 134.337 107.668 134.878 108.027 135.346C108.385 135.812 108.844 136.193 109.369 136.46C111.586 137.402 113.999 137.888 116.333 138.56V138.562Z" fill="black"/>
<path d="M118.953 131.208C118.937 132.17 118.55 133.087 117.872 133.768C117.195 134.45 116.279 134.843 115.318 134.864C114.247 134.868 113.217 134.454 112.447 133.71C111.676 132.966 111.227 131.95 111.194 130.88C111.183 130.402 111.271 129.926 111.449 129.482C111.628 129.039 111.895 128.636 112.234 128.299C112.573 127.961 112.977 127.696 113.421 127.519C113.866 127.342 114.342 127.257 114.82 127.27C115.353 127.246 115.885 127.33 116.385 127.516C116.884 127.703 117.341 127.989 117.727 128.357C118.113 128.725 118.421 129.167 118.631 129.657C118.842 130.147 118.951 130.675 118.953 131.208Z" fill="black"/>
</g>
<defs>
<clipPath id="clip0">
<rect width="128.642" height="151.614" fill="white" transform="translate(0.562012 0.509521)"/>
</clipPath>
</defs>
</svg>

<svg xmlns="http://www.w3.org/2000/svg" width="130" height="153" fill="none" viewBox="0 0 130 153"><g fill="#000" clip-path="url(#a)"><path d="M128.899 134.928c-.581 1.308-1.154 2.621-1.746 3.924a9.98 9.98 0 0 1-8.241 6.147 22.9 22.9 0 0 1-12.822-1.909c-4.678-2.199-6.643-5.669-6.307-10.817a15.21 15.21 0 0 1 10.721-13.634c.636-.197 1.244-.473 2.101-.803-.144-7.375.897-14.799-.676-22.115a15.1 15.1 0 0 0-2.941-5.869c-1.503-1.922-3.741-2.166-5.726-.722a18.3 18.3 0 0 0-4.398 4.522c-3.555 5.317-5.42 11.302-6.276 17.602-.936 6.892-1.651 13.814-2.713 20.685-2.498 16.168-19.4 24.668-34.017 17.159-7.122-3.658-10.333-9.931-10.474-17.581-.127-6.935.442-13.892.913-20.825.34-5.035 1.033-10.042 1.537-15.069q.072-1.186.013-2.374c-6.138-2.207-12.161-4.011-17.887-6.498C14.195 79.897 5.337 67.474 2.124 50.843a48 48 0 0 1 1.43-24.302C7.149 15.59 14.735 8.383 25.615 4.646a14.5 14.5 0 0 1 2.954-.616c1.57-.193 2.905-.403 3.992-1.962 1.338-1.92 3.257-1.628 4.683.307a6.63 6.63 0 0 1 .193 6.71c-1.525 2.32-3.32 2.28-6.13-.131-9.254 1.229-20.853 11.171-22.949 24.115-1.26 7.788-1.305 15.575 1.375 22.957 3.887 10.71 10.65 19.206 21.515 23.705 4.241 1.758 8.692 3.004 12.951 4.72 7.13 2.874 14.085 1.431 19.99-2.32 11.86-7.534 22.086-17.062 28.546-29.812 5.25-10.365 5.339-20.953-.556-31.255C88.13 13.99 81.742 10.16 74.041 8.194c-1.313-.336-2.322-.162-3.216 1.05-.998 1.345-2.437 2.03-4.149 1.325-1.606-.662-2.32-2.03-2.589-3.67-.656-4.018.244-5.769 3.521-6.3.98-.16 2.1.3 3.106.622 1.116.357 2.15 1.149 3.276 1.288 10.88 1.348 19.18 6.718 24.705 16.107 7.138 12.133 6.596 24.618.94 37.108-3.484 7.693-8.866 14.037-14.998 19.715-4.606 4.266-9.418 8.315-14.261 12.31a18.7 18.7 0 0 1-11.798 4.316q-1.65.111-3.282.39-.25.519-.368 1.084c-.465 8.519-1.026 17.036-1.313 25.562a88.5 88.5 0 0 0 .428 12.426c.95 8.813 6.914 13.254 15.681 11.988 7.514-1.085 11.255-4.415 12.602-11.923.948-5.291 1.388-10.675 1.998-16.022 1.064-9.32 2.84-18.403 8.098-26.45 2.542-3.892 5.728-6.892 10.288-8.183 3.982-1.129 7.539-.162 10.756 2.312 5.139 3.954 6.814 9.56 7.364 15.651a59.6 59.6 0 0 1-1.308 19.865q.694.464 1.45.825c3.943 1.544 6.533 4.247 7.408 8.474.06.294.346.541.525.809zm-12.566 3.634c3.405-.38 4.785-1.432 5.615-4.576.783-2.962-.373-6.498-2.645-8.097-2.989-2.1-6.049-2.428-8.388-.66a9.17 9.17 0 0 0-3.619 8.532 3.95 3.95 0 0 0 2.073 2.699c2.217.942 4.63 1.428 6.964 2.1z"/><path d="M118.953 131.208a3.7 3.7 0 0 1-1.081 2.56 3.7 3.7 0 0 1-2.554 1.096 4.11 4.11 0 0 1-4.124-3.984 3.54 3.54 0 0 1 1.04-2.581 3.54 3.54 0 0 1 2.586-1.029 3.96 3.96 0 0 1 4.133 3.938"/></g><defs><clipPath id="a"><path fill="#fff" d="M.562.51h128.642v151.614H.562z"/></clipPath></defs></svg>
